X: 21817
T: Kinnard, The
R: polka
M: 2/4
K: Gmajor
BG G>E|DG GA|BG GF/G/|Ad d/e/d/c/|
BG G>E|DG GB/d/|ed cA|AG G>A:|
Bd ga/g/|fe e2|Bd ef|ed BA|
Bd g2|fe a>g|fd ef|ag g>A:|

